icons/desktop/16/svg/line-arrow-up-16.svg

<svg width="16" height="16" viewBox="0 0 16 16" fill="none" xmlns="http://www.w3.org/2000/svg">
<path d="M7.99831 6.66309C8.46507 6.66315 8.90472 6.84505 9.23562 7.17578L13.7786 11.7188C13.9246 11.8647 13.9993 12.057 13.9993 12.249L14.0003 12.25C14.0003 12.442 13.9275 12.6343 13.7805 12.7803C13.4876 13.0732 13.012 13.0732 12.719 12.7803L8.17605 8.2373C8.11217 8.17343 8.03835 8.1641 7.99929 8.16406C7.96031 8.16406 7.88651 8.17338 7.82253 8.2373L3.27859 12.7803C2.9856 13.0729 2.51093 13.073 2.21804 12.7803C1.92504 12.4873 1.92504 12.0118 2.21804 11.7188L6.76101 7.17578C7.091 6.84483 7.53135 6.66309 7.99831 6.66309Z" fill="black"/>
<path d="M8.00027 3C9.80312 3.00001 11.616 3.17271 13.3909 3.51367C13.7978 3.59165 14.0634 3.98471 13.9856 4.3916C13.9086 4.7986 13.5147 5.0733 13.1077 4.9873C9.74279 4.34237 6.24779 4.34232 2.89089 4.9873C2.48198 5.07315 2.08995 4.79852 2.01296 4.3916C1.93524 3.98485 2.202 3.59179 2.60769 3.51367C4.38069 3.17267 6.19527 3 8.00027 3Z" fill="black"/>
</svg>

<!-- This Source Code Form is subject to the terms of the Mozilla Public
   - License, v. 2.0. If a copy of the MPL was not distributed with this
   - file, You can obtain one at http://mozilla.org/MPL/2.0/. -->
<svg xmlns="http://www.w3.org/2000/svg" width="16" height="16" fill="context-fill" fill-opacity="context-fill-opacity" viewBox="0 0 16 16">
    <path d="M7.998 6.663c.467 0 .907.182 1.238.513l4.543 4.543a.75.75 0 0 1 .22.53l.001.001a.751.751 0 0 1-1.281.53L8.176 8.237a.25.25 0 0 0-.353 0L3.279 12.78a.75.75 0 0 1-1.061-1.061l4.543-4.543c.33-.331.77-.513 1.237-.513M8 3c1.803 0 3.616.173 5.39.514a.75.75 0 0 1 .596.878.744.744 0 0 1-.878.595 27.2 27.2 0 0 0-10.217 0 .743.743 0 0 1-.878-.595.75.75 0 0 1 .595-.878A28.6 28.6 0 0 1 8 3" />
</svg>
